img/icons-payable-taxes/08.svg

<svg width="50" height="48" viewBox="0 0 50 48" fill="none" xmlns="http://www.w3.org/2000/svg">
<path d="M47.5028 10.2688H37.4807V7.79883C37.4807 3.49854 33.9821 0 29.6819 0H23.8234C23.4188 0 23.091 0.327832 23.091 0.732422C23.091 1.13701 23.4188 1.46484 23.8234 1.46484H29.6819C33.1745 1.46484 36.0158 4.30635 36.0158 7.79883V10.2688H34.3349V7.79883C34.3349 5.2332 32.2476 3.1458 29.6819 3.1458H19.2643C16.6985 3.1458 14.6111 5.2332 14.6111 7.79883V10.2688H12.9302V7.79883C12.9302 4.30625 15.7717 1.46484 19.2643 1.46484H20.9914C21.396 1.46484 21.7238 1.13701 21.7238 0.732422C21.7238 0.327832 21.396 0 20.9914 0H19.2643C14.9639 0 11.4653 3.49854 11.4653 7.79883V10.2688H2.49619C1.33945 10.2688 0.398438 11.21 0.398438 12.3666V21.7742C0.398438 22.9311 1.33955 23.8721 2.49619 23.8721H3.32715V33.602C3.32715 34.0065 3.65498 34.3344 4.05957 34.3344C4.46416 34.3344 4.79199 34.0065 4.79199 33.602V23.8721H17.4611V25.6657C17.4611 26.5644 18.1923 27.2955 19.0909 27.2955H30.8318C31.7305 27.2955 32.4616 26.5644 32.4616 25.6657V23.8721H45.207V33.3336C45.1076 33.4045 45.0069 33.473 44.9055 33.5389C43.4699 34.4699 41.8508 34.4129 40.1368 34.3527C36.8456 34.2371 33.1153 34.106 30.576 41.2076C29.809 43.3529 28.7215 45.0055 27.3412 46.1241H7.76475C6.12559 46.1241 4.79199 44.7905 4.79199 43.1513V36.4341C4.79199 36.0295 4.46416 35.7017 4.05957 35.7017C3.65498 35.7017 3.32715 36.0295 3.32715 36.4341V43.1513C3.32715 45.5982 5.31787 47.589 7.76475 47.589H27.5942C27.7544 47.589 27.9101 47.5365 28.0376 47.4396C29.7382 46.1462 31.0562 44.2154 31.9554 41.7009C34.1341 35.6073 36.8925 35.7042 40.0854 35.8166C41.9511 35.8822 43.8798 35.95 45.7026 34.7679C45.937 34.6157 46.1682 34.4513 46.3895 34.2788C46.5676 34.14 46.6719 33.9269 46.6719 33.701V23.8722H47.5028C48.6596 23.8722 49.6006 22.9311 49.6006 21.7743V12.3667C49.6007 11.21 48.6596 10.2688 47.5028 10.2688ZM16.076 7.79883C16.076 6.04082 17.5062 4.61064 19.2643 4.61064H29.6819C31.4398 4.61064 32.87 6.04092 32.87 7.79883V10.2688H16.076V7.79883ZM30.9969 25.6658C30.9969 25.7568 30.9229 25.8308 30.8319 25.8308H19.091C19 25.8308 18.9261 25.7567 18.9261 25.6658V21.0425C18.9261 20.9515 19.0001 20.8775 19.091 20.8775H30.8319C30.923 20.8775 30.9969 20.9516 30.9969 21.0425V25.6658ZM48.1358 21.7743C48.1358 22.1233 47.852 22.4073 47.5029 22.4073H32.4617V21.0425C32.4617 20.1438 31.7306 19.4127 30.8319 19.4127H19.091C18.1924 19.4127 17.4612 20.1438 17.4612 21.0425V22.4073H2.49619C2.14717 22.4073 1.86328 22.1233 1.86328 21.7743V12.3667C1.86328 12.0177 2.14717 11.7338 2.49619 11.7338H47.5028C47.8519 11.7338 48.1357 12.0177 48.1357 12.3667V21.7743H48.1358Z" fill="#007A65"/>
</svg>

<svg width="50" height="48" fill="none" xmlns="http://www.w3.org/2000/svg"><path d="M47.503 10.269H37.48v-2.47c0-4.3-3.499-7.799-7.8-7.799h-5.858a.732.732 0 100 1.465h5.859a6.341 6.341 0 016.334 6.334v2.47h-1.681v-2.47a4.658 4.658 0 00-4.653-4.653H19.264a4.658 4.658 0 00-4.653 4.653v2.47h-1.68v-2.47a6.341 6.341 0 016.333-6.334h1.727a.732.732 0 100-1.465h-1.727c-4.3 0-7.799 3.499-7.799 7.799v2.47H2.496a2.1 2.1 0 00-2.098 2.098v9.407a2.1 2.1 0 002.098 2.098h.831v9.73a.732.732 0 101.465 0v-9.73h12.67v1.794c0 .898.73 1.63 1.629 1.63h11.74c.9 0 1.63-.732 1.63-1.63v-1.794h12.746v9.462c-.1.07-.2.139-.301.205-1.436.93-3.055.874-4.77.814-3.29-.116-7.02-.247-9.56 6.855-.767 2.145-1.855 3.797-3.235 4.916H7.765a2.976 2.976 0 01-2.973-2.973v-6.717a.732.732 0 10-1.465 0v6.717a4.443 4.443 0 004.438 4.438h19.83c.16 0 .315-.053.443-.15 1.7-1.293 3.018-3.224 3.917-5.738 2.18-6.094 4.938-5.997 8.13-5.884 1.866.065 3.795.133 5.618-1.05a9.59 9.59 0 00.686-.488.733.733 0 00.283-.578v-9.829h.83a2.1 2.1 0 002.099-2.098v-9.407a2.1 2.1 0 00-2.098-2.098zm-31.427-2.47a3.192 3.192 0 013.188-3.188h10.418a3.192 3.192 0 013.188 3.188v2.47H16.076v-2.47zm14.92 17.867a.165.165 0 01-.164.165H19.09a.165.165 0 01-.165-.165v-4.623c0-.091.074-.165.165-.165h11.74c.092 0 .166.074.166.165v4.623zm17.14-3.892a.634.634 0 01-.633.633H32.462v-1.364c0-.9-.731-1.63-1.63-1.63H19.09c-.899 0-1.63.73-1.63 1.63v1.364H2.496a.634.634 0 01-.633-.633v-9.407c0-.35.284-.633.633-.633h45.007c.349 0 .633.284.633.633v9.407z" fill="#007A65"/></svg>
